X: 34046
T: Reel De Gaspé
R: reel
M: 4/4
K: Dmajor
Ad|:"D"f2ef e2d2|FAFA B2A2|"G"g2fg f2e2|"A7"BABc B2A2|
"D"f2ef e2d2|FAFA B2A2|"G"g2fg f2ed|1 "A7"B2 c2 "D"d4:|2 "A7"B2 c2 "D"d3f||
|:"A7"e2f2 gfe2|"D"f2g2a4|"A7"e2f2 gfe2|BABc B2A2|
"A"e2f2 gfe2|"D"f2g2a4|"Em"e2f2 "G"gfed|1 "A7"B2c2"D"d3f:|2 "A7"B2c2 "D"d4||

